lib/brands/icons/nuxt-js.svg

<svg xmlns="http://www.w3.org/2000/svg" fill="none" aria-hidden="true" viewBox="0 0 48 48"><g id="nuxt-js-Icon"><g id="Group"><path id="Vector" fill="#80EEC0" fill-rule="evenodd" d="M21.8869 13.2485C20.8783 11.5143 18.3566 11.5142 17.3479 13.2485L6.355 32.15C5.34634 33.8843 6.60717 36.0522 8.6245 36.0522H17.2062C16.3442 35.2988 16.025 33.9956 16.6773 32.8774L25.0028 18.6061L21.8869 13.2485Z" clip-rule="evenodd"/><path id="Vector_2" fill="#00DC82" d="M28.8523 17.3947C29.6871 15.9757 31.774 15.9757 32.6087 17.3947L41.7062 32.8595C42.5411 34.2785 41.4977 36.0522 39.8282 36.0522H21.6329C19.9634 36.0522 18.92 34.2785 19.7547 32.8595L28.8523 17.3947Z"/></g></g></svg>

<svg xmlns="http://www.w3.org/2000/svg" fill="none" aria-hidden="true" viewBox="0 0 48 48"><path fill="#80EEC0" fill-rule="evenodd" d="M21.887 13.248c-1.009-1.734-3.53-1.734-4.54 0L6.356 32.15c-1.009 1.734.252 3.902 2.27 3.902h8.581c-.862-.753-1.181-2.056-.529-3.175l8.326-14.27-3.116-5.358Z" clip-rule="evenodd"/><path fill="#00DC82" d="M28.852 17.395c.835-1.42 2.922-1.42 3.757 0l9.097 15.464c.835 1.42-.208 3.193-1.878 3.193H21.633c-1.67 0-2.713-1.773-1.878-3.193l9.097-15.464Z"/></svg>
